X:13019
T:Morpeth Rant
R:Reel
C:William Shields (1748-1829)
O:England; Northumbria
Z:Paul Hardy's Session Tunebook 2022 (see www.paulhardy.net). Creative Commons cc by-nc-sa licenced.
M:4/4
L:1/8
Q:1/4=140
K:D
"A"A3 z c3 z|:"D"d2 AG FD FA|"G"BG Bd "A"cA ce|"D"f2 fd "Em"gf ed|"A7"c2 e2 e2 A2|
"D"d2 AG FD FA|"G"BG Bd "A"cA ce|"D"f2 fd "A"gf ed|"D"A2 d2 d2 A2:|
|:"D"df af df af|"Em"gf ef g2 ef|"A7"gf ed cd eg|"D"fe fg f2 fe|
"D"df af df af|"Em"gf ef g2 ef|"A"gf ed ca ag|1"D"f2 d2 d2 A2:|2"D"f2 d2 d4|]

